( Wing segment 1/1 for left side )
( Wing root airfoil: CLARK-Y 11.7% smoothed, 150mm chord )
( Wing tip airfoil: CLARK-Y 11.7% smoothed, 100mm chord )
( Wing segment length: 500 mm )
( Foam block width: 500 mm )
( Foam block height: 100 mm )
( Foam block length: 500 mm )
( Foam block offset: 50 mm )
( Machine X/U axis length: 500 mm )
( Machine Y/V axis length: 300 mm )
( Cutting speed: 300 mm/min )
( Hot wire relay control speed: false )
G17
G21
( SET ABSOLUTE MODE )
G90
( SET CUTTER COMPENSATION )
G40
( SET TOOL LENGTH OFFSET )
G49
( SET PATH CONTROL MODE )
G64
( SET FEED RATE MODE )
G94
F300
( FIRST-VERTICAL )
G1 X0.00 Y9.62 U0.00 V9.62
( PRE-ENTRY )
G1 X0.00 Y9.62 U0.00 V9.62
( ENTRY )
G1 X10.00 Y9.62 U10.00 V9.62
( TOP SECTION )
G1 X10.00 Y9.62 U10.00 V9.62
G1 X10.17 Y10.52 U10.05 V9.78
G1 X10.67 Y11.53 U10.27 V9.97
G1 X11.49 Y12.61 U10.63 V10.19
G1 X12.65 Y13.73 U11.16 V10.43
G1 X14.12 Y14.84 U11.84 V10.68
G1 X15.91 Y15.90 U12.67 V10.94
G1 X18.00 Y16.93 U13.65 V11.20
G1 X20.40 Y17.93 U14.78 V11.47
G1 X23.08 Y18.91 U16.04 V11.76
G1 X26.03 Y19.87 U17.44 V12.05
G1 X29.25 Y20.79 U18.97 V12.34
G1 X32.72 Y21.61 U20.62 V12.63
G1 X36.42 Y22.32 U22.39 V12.91
G1 X40.34 Y22.89 U24.26 V13.17
G1 X44.46 Y23.35 U26.24 V13.42
G1 X48.77 Y23.69 U28.31 V13.66
G1 X53.25 Y23.93 U30.47 V13.90
G1 X57.87 Y24.09 U32.69 V14.12
G1 X62.61 Y24.16 U34.98 V14.34
G1 X67.47 Y24.14 U37.33 V14.54
G1 X77.41 Y23.83 U42.14 V14.91
G1 X87.52 Y23.16 U47.04 V15.23
G1 X97.64 Y22.16 U51.95 V15.49
G1 X107.58 Y20.90 U56.79 V15.70
G1 X117.18 Y19.43 U61.47 V15.86
G1 X126.27 Y17.84 U65.90 V15.98
G1 X134.70 Y16.21 U70.02 V16.06
G1 X142.32 Y14.61 U73.74 V16.12
G1 X149.00 Y13.14 U77.01 V16.15
G1 X154.63 Y11.83 U79.77 V16.17
G1 X159.11 Y10.73 U81.96 V16.17
G1 X162.37 Y9.90 U83.56 V16.17
G1 X164.35 Y9.37 U84.53 V16.16
G1 X165.01 Y9.18 U84.86 V16.16
G1 X165.01 Y9.18 U84.86 V16.16
( EASING )
G1 X175.01 Y9.18 U94.86 V16.16
( EASING RETURN )
G1 X165.01 Y9.18 U84.86 V16.16
( BOTTOM SECTION )
G1 X165.01 Y9.18 U84.86 V16.16
G1 X165.01 Y9.18 U84.86 V16.16
G1 X164.35 Y9.14 U84.54 V16.13
G1 X162.37 Y9.04 U83.59 V16.02
G1 X159.11 Y8.90 U82.02 V15.86
G1 X154.62 Y8.73 U79.86 V15.64
G1 X148.99 Y8.54 U77.14 V15.37
G1 X142.31 Y8.33 U73.92 V15.05
G1 X134.68 Y8.08 U70.25 V14.68
G1 X126.26 Y7.80 U66.19 V14.27
G1 X117.16 Y7.51 U61.80 V13.83
G1 X107.56 Y7.19 U57.18 V13.37
G1 X97.62 Y6.86 U52.38 V12.89
G1 X87.50 Y6.53 U47.51 V12.40
G1 X77.38 Y6.19 U42.64 V11.91
G1 X67.44 Y5.86 U37.84 V11.43
G1 X62.59 Y5.70 U35.50 V11.20
G1 X57.84 Y5.54 U33.22 V10.97
G1 X53.22 Y5.40 U30.99 V10.75
G1 X48.75 Y5.26 U28.83 V10.53
G1 X44.44 Y5.14 U26.76 V10.33
G1 X40.32 Y5.05 U24.77 V10.14
G1 X36.40 Y5.00 U22.88 V9.96
G1 X32.69 Y5.00 U21.09 V9.80
G1 X29.23 Y5.04 U19.42 V9.66
G1 X26.01 Y5.14 U17.86 V9.54
G1 X23.06 Y5.27 U16.43 V9.44
G1 X20.38 Y5.46 U15.13 V9.35
G1 X17.99 Y5.71 U13.97 V9.29
G1 X15.89 Y6.03 U12.95 V9.26
G1 X14.11 Y6.44 U12.08 V9.25
G1 X12.64 Y6.93 U11.35 V9.27
G1 X11.49 Y7.49 U10.78 V9.32
G1 X10.66 Y8.12 U10.36 V9.39
G1 X10.16 Y8.83 U10.10 V9.49
G1 X10.00 Y9.62 U10.00 V9.62
( PRE-EXIT )
G1 X0.00 Y9.62 U0.00 V9.62
( EXIT )
G1 X0.00 Y9.62 U0.00 V9.62
( GO TO ZERO )
G1 X0.00 Y0.00 U0.00 V0.00
M2